X:251
T: Kan shehuo
N: C0396
O: China, Henan, Lushi
S: IV, 170]
R: Xiaodiao, Jianjianhua diao]
M: 2/4
L: 1/16
K: G
d2g2d2B2 | ABAGA2AA | d2g2d2B2 | ABAGA2Ad
G2G2z2A2 | g2Bdd2dB | ABAGG2A2 | G8
G2A2d2d2 | g2d2d2B2 | d2d2d2G2 | A2A2
B2G2 | A2A2
B2G2 | A2A2
B2G2 | A2A2
B2G2 | A4
D3DG2G2 | A2d4G2 | E2D2EDC2 | D8
d3Ad2B2 | A2dBA2G2
D2D2G2G2 | A2d4G2 | E2D2EDC2 | D8

